X:219
T:Steampacket, The
R:reel
N:See also #660, #659.
D:Johnny Doran
Z:id:hn-reel-219
M:C|
K:G
|:~G3B AGFD|AG~G2 Addc|AG~G2 AGFD|FEFG ABcA:|
dg~g2 aggf|dgge fdcA|dg~g2 aggf|d^cde fd=cA|
dg~g2 ag (3efg|abag fefg|afge fde^c|~d2eg fdcA||
